deployments/warp_routes/BEST/logo.svg

<svg width="150" height="150" viewBox="0 0 150 150" fill="none" xmlns="http://www.w3.org/2000/svg">
<g clip-path="url(#clip0_31_644)">
<mask id="mask0_31_644" style="mask-type:luminance" maskUnits="userSpaceOnUse" x="0" y="0" width="150" height="150">
<path d="M150 0H0V150H150V0Z" fill="white"/>
</mask>
<g mask="url(#mask0_31_644)">
<path d="M75 150C89.8337 150 104.334 145.601 116.668 137.36C129.002 129.119 138.614 117.406 144.291 103.701C149.967 89.9969 151.453 74.9169 148.559 60.3683C145.665 45.8197 138.522 32.4559 128.033 21.967C117.544 11.4781 104.181 4.33503 89.6319 1.44114C75.0831 -1.45276 60.0034 0.0324972 46.299 5.70907C32.5945 11.3856 20.8811 20.9986 12.64 33.3322C4.3989 45.6659 0.000227065 60.1664 0.000227065 75C-0.0240543 84.8563 1.89931 94.6194 5.65981 103.73C9.42031 112.841 14.9438 121.118 21.9131 128.087C28.8823 135.056 37.1599 140.58 46.2703 144.341C55.3806 148.101 65.1444 150.024 75 150Z" fill="#6870FA"/>
<path d="M37.5 91.6994C37.5 81.7238 37.5 76.7356 39.5467 72.6319C40.4666 70.7875 41.6736 69.1006 43.1226 67.6344C46.3463 64.3731 51.0672 62.7631 60.5091 59.5437L79.0956 53.2061C92.6244 48.593 99.3881 46.2865 104.434 48.8636C105.62 49.4691 106.709 50.2481 107.664 51.1748C111.732 55.119 111.732 62.2657 111.732 76.5594C111.732 86.4563 111.732 91.4044 109.449 95.3588C108.895 96.3169 108.249 97.2194 107.521 98.0525C104.515 101.49 99.8313 103.087 90.4644 106.281L68.395 113.806C56.4838 117.868 50.5283 119.899 45.9361 118.071C40.0519 115.729 37.5 110.286 37.5 105.601C37.5 102.437 37.5 96.6075 37.5 91.6994Z" fill="url(#paint0_linear_31_644)"/>
<path fill-rule="evenodd" clip-rule="evenodd" d="M37.5 68.1737C37.5 60.184 37.5 53.6336 38.8283 50.2242C40.0014 47.2132 41.9054 44.5415 44.3688 42.45C47.158 40.0818 50.9343 38.7781 58.4867 36.1708L61.0901 35.272C69.86 32.2442 74.2456 30.7303 77.7656 31.411C81.5756 32.1478 84.8787 34.5015 86.8181 37.8624C88.6106 40.9679 88.6106 48.0409 88.6106 57.3191C88.6106 64.64 88.6106 68.3 87.4919 71.4562C86.2763 74.8869 84.1231 77.9081 81.2769 80.1769C78.6588 82.2644 75.1987 83.4587 68.2787 85.8475C68.2787 85.8475 56.3622 89.9187 48.939 92.5125C41.5158 95.1069 37.5 100.31 37.5 105.722V68.1737Z" fill="white"/>
</g>
</g>
<defs>
<linearGradient id="paint0_linear_31_644" x1="109.116" y1="94.4656" x2="40.5319" y2="55.0551" gradientUnits="userSpaceOnUse">
<stop stop-color="white"/>
<stop offset="1" stop-color="white" stop-opacity="0.12"/>
</linearGradient>
<clipPath id="clip0_31_644">
<rect width="150" height="150" fill="white"/>
</clipPath>
</defs>
</svg>

<svg xmlns="http://www.w3.org/2000/svg" width="150" height="150" fill="none" viewBox="0 0 150 150"><g clip-path="url(#a)"><mask id="b" width="150" height="150" x="0" y="0" maskUnits="userSpaceOnUse" style="mask-type:luminance"><path fill="#fff" d="M150 0H0v150h150z"/></mask><g mask="url(#b)"><path fill="#6870FA" d="M75 150a75.002 75.002 0 0 0 73.559-89.632A75 75 0 0 0 0 75a74.816 74.816 0 0 0 75 75"/><path fill="url(#c)" d="M37.5 91.7c0-9.976 0-14.964 2.047-19.068a19.5 19.5 0 0 1 3.576-4.998c3.223-3.26 7.944-4.87 17.386-8.09l18.587-6.338c13.528-4.613 20.292-6.92 25.338-4.342a13.4 13.4 0 0 1 3.23 2.31c4.068 3.945 4.068 11.092 4.068 25.385 0 9.897 0 14.845-2.283 18.8-.554.958-1.2 1.86-1.928 2.694-3.006 3.437-7.69 5.034-17.057 8.228l-22.069 7.525c-11.911 4.062-17.867 6.093-22.459 4.265-5.884-2.342-8.436-7.785-8.436-12.47z"/><path fill="#fff" fill-rule="evenodd" d="M37.5 68.174c0-7.99 0-14.54 1.328-17.95a19.5 19.5 0 0 1 5.54-7.774c2.79-2.368 6.566-3.672 14.119-6.28l2.603-.898c8.77-3.028 13.156-4.542 16.676-3.861 3.81.737 7.113 3.09 9.052 6.451 1.793 3.106 1.793 10.179 1.793 19.457 0 7.321 0 10.981-1.12 14.137a19.47 19.47 0 0 1-6.214 8.72c-2.618 2.088-6.078 3.283-12.998 5.671 0 0-11.917 4.072-19.34 6.666S37.5 100.31 37.5 105.722z" clip-rule="evenodd"/></g></g><defs><linearGradient id="c" x1="109.116" x2="40.532" y1="94.466" y2="55.055" gradientUnits="userSpaceOnUse"><stop stop-color="#fff"/><stop offset="1" stop-color="#fff" stop-opacity=".12"/></linearGradient><clipPath id="a"><path fill="#fff" d="M0 0h150v150H0z"/></clipPath></defs></svg>
